-----BEGIN PGP PUBLIC KEY BLOCK-----

mQINBGpjMNABEADK+N0apJQLCOE1DMKiCRwLikXvcNFtuP8fABhe3bTSMqf89APA
n05DeJUW5kML0Kmhn98VJo1ZGNIFkxzIQ8NhmRSD87gYquH0suyKSbpwPVyi7HCw
/4HRBvcIlOkTFBiiIpCJasNdK59dYB2KVUoe64C95L1GI2ynP1HdCELLx00UJVFr
NITPpGGQtSLAAb0IKRYVVLLlh0uwLetUGMnO2ggN/knEUpmqavSoERf9YgG3P2aX
mwkXTXgAFNVVqup5XyaKwNHwaxTicy4f+MNsJLwt7nCEuuIrE/OOQ1o9S1oQ1tQv
Q2KiGQW/zDwdLipuA7aGYzz9kfyCsER7U1lam8Sz7Ss4oDw7jfghujHaMI+V0rOi
fT8xzYt3AbH5CFna8o8apPQhidtsvm9L2LoXGgJNCZIjKnT3rWX483eKU3g+C4O5
599La25PSbJRLhSCYf9h0qBrZwsbY72Y9pFmuNV0mZc1o3mdPIgFTlRS16ZAzN27
S5BcdMedNOyx7BnO8p/mdkafKF5vVGPWRmDzDuwMAXfN12tT/GnwWFZf0EBJKj92
9TpaoaW6P9IQOXXvIznYuZqbdbLdACZoACh3taIyWnjjC9UFAbc4CsUM8ijAMEUn
5v/0+zJoojoYh2ZbSfSLHPC87g3AFxNRWsbaIupYjsYcaLQtfvy/M2ma3wARAQAB
tCNQYXdlbCBDeWdhbCA8cGF3ZWwuY3lnYWxAcG9jenRhLmZtPokCTgQTAQoAOBYh
BMC6jbiPXDxgdrl+5JAIa7df8Ji4BQJqYzDQAhsvBQsJCAcCBhUKCQgLAgQWAgMB
Ah4BAheAAAoJEJAIa7df8Ji4URMP/iuIuRChx6IzycY9X72BcxwY62OwGzUO6jSw
/064sUgP3LnGIsX0DWELUD19r7XjN9ar73XGUQE6na1uGivY7R9qSaFtPJgahMJD
qwhDuta9pTYBwo4QxBPHTHJncqZYcXHaTB8b65ZhnIo/6gcdNcL4f23Qeyi185Y3
ni7sfFXGvCZKWAfAGqJocsoP5ae6U6w11mk2b3Ql2PAIjNqZNXVmVccjr60vY573
61WPjslzLnTmLHvbond/XRSE5CNa3op6tSwlNSrZwB9oWiOeFpbVgKwmcJ/9MABz
vGISrtLsifsVjVSeee1qDG+9E9DzJW/jXFTt4v9bEfwQ4ZSaJvqe0eZYHFDu8OWt
PvKd8QaUt8oh6BBCzVha22ecR3F8ipWl9+xN5h1gQmMhyUh8kKG0ExwMSRkSajzX
cL+2ZXvjUSr3MR7hblk/lKPxcTq2kGMlYgCj4f80aNfBLqtb67dus7RfYzni+yuj
pqlMZU59h2dnmoldJuFuerVoFbfgbOYpxXeXE0pRWLF1D3cgntdDYKhhy8MJDnCf
fW8bfCDFej65RxUpLWFPUPgnKMpH5au7OsnicgV7gDRIA87KebmDcqIG1VGgj8J0
6SueisU+MDn2/DtQeR/riVmkKA+exCsxLDfrKqcLEQ4Gp3rfqSOnfN8uktyjAAMO
ag78tBNVuQINBGpjMNABEADHimsvB29Lk8Kb1ayipCMaNp2hda9FG/bSOOP/DbZO
CLV7TeFM43i3tzaJTD1u1eGZeup08duP6xXQXWg8ucQzr9v06XIkw/Mo6jJX9tS4
H+JI9RuefiFLhqo//qeW2jmN+CvwxMtuL70u/hVITBpLCbTPwl77CxIRbv0yErb2
1IQ097kW1rMzvvI/mcCA22qdPe22Opzhrtfs+bzpqSzLOjj8gf+lPMcjtRM/C5WP
6fBXQfok/oh2USGgedWPVTekfoQ9hF0ZYnXa6TwHZg1twExVVKW+g78r7aNt43v4
SYbg4BCLFMd6c6uVjttraR5jhV3BVC45deWJYaKYQYr9MKgbOtqZ5xp+A6s2rWfB
w+HqYSD1BgBP0eS9u7xRwGLWTAWgg7QOQI9FsKGQB1EWWqJl1a5EdKUFCnfUAfUc
/CNPjmJi0TK4j5ozvByDUsfZ7rjBPKqLOoF/WxWvkxNr61cRjbAlPb97yhj5ESau
wc9n55lFDDokrRt5/w9OHP633ZqoQp+Exj6VR2hHNbhewGOkZP6f1API4fnPQwg0
aiSWNPkkHRu6Iri4y4bKV+wdsd4Azfs9I5kxriQzSEsu9gubCwrOvo55TUISrsWd
GxXVtJvqEdxOpgiAtA/DN/C1P9iHCyFKU1kcJg113p+PC9vPie7jQmv/0LbG5RYa
qQARAQABiQRsBBgBCgAgFiEEwLqNuI9cPGB2uX7kkAhrt1/wmLgFAmpjMNACGy4C
QAkQkAhrt1/wmLjBdCAEGQEKAB0WIQQxOG4ri4qC0sPqnVvAP76qqTHcuwUCamMw
0AAKCRDAP76qqTHcu3B+D/47RK8u60RpiMS/ntsj21PxsbXAlyT6sjS3d/7qAriK
+Z3queAoiRNof/P5HbQUo4hVBTGZZ6J0e0tsC34uTMfixKHb0g4hNZ62NFrdG7ys
VZFKT1zlYv1g6Y8YKpBKRXoevZaV1YCQsOgmWmlITM/ap9xVuA2ncQTUs+WXzU0Y
8fqK4/eVtjM2TPSRC7cuHycnVimmJx3hcxeuk9uYnT+j4aF9huinkxTxPJE40dLw
4jPRBPL6Ux5C/a5STCJ54Lb5fJ2AY0CXY0I/oXxDHG0IOMr7qngeIia/kcveHBd3
nlAoYPItHeT2yVA3aIEhX4WpYOWILz+5WLEsLXPGDChEaxLZtnjjIPN7AMxiVAqC
QXYgdnL7nS2UphfxTllC8qpYhg9LNGMLrM18saw1015J6gZowq9bWYxcbtyTf0L7
g+VuPuNZJnGLVz+waOO11Sm4+aMVpismj2NWwYiCXkuvMElImph1TnShoT75uLhH
IOJGwgpVCIc6l3RBacKaOBD+l+YEqA0c9i/ZaZAK3TswxbM/K4xqqHW9StisDBzW
kq7zAzQrhVMXh7FMfV5VUBmsPPuqRJOx7PfKJyKZZjOZ4EvGoK3Q1BrMcQ3eUZxx
MB7TC5lg/YR0OpzZn91T4pauLngCr+PBNbQlhf2iwS3TDY3DUJ2Rf5VbXktYRuIG
4+DcD/9CZoLLfaSko+LYaztLzuxGNApcBG4cJqGRIRwcnXTLOQyFUhzQkBPGqfy7
2pyx37CyjpUA6uwnhd1CMGnVgK+1jpF0t7ufVgOd/oaKXuH+ocKsH3VxB/gjHoBK
B1Iv3h8LpZvTE6Rub4y9R+uBXeHhVs21s7U500/YxCNuTktbgFo2pJubtpH4FnGM
vsk3ccbAiJfEVDwbG5mGkgXHVw1gcJsuZcNzT+GV41nGlLIG8jy47y+T0Oo2BFdi
amgfz/vR7yLHMTbS2Z+4t2IGHHGPG5h7sT/V1awTEgeFNq/i510+7t3kiqdPMiDC
KJkTlitJL/W3tYZ1XXc7gLlKhkfN5vHWk4L8FA8nc08IdeBxCnJusJIN7ab5mDqO
dt6nGGWE046C3lvzkeksDDrufMsh8/I4DgZ8Twh0X6Aj1AP4hLaQV/i6juO9dboW
oBQ86J/7+fVru2cwPy8ip2JiyGAd6jlJ1zS/eUv2ZR0rdJN1k2/dAISDXpmUcmm+
M68Y912b/9lh6didKIDUTYdoM8NLPYyJZB0LDFPiULMC1xfWpEqrrnOdy6wG9R0n
v23sPUVbJG9YWvXKVxFaHDeX/BYGCxFRqeAH3PmtzMj0iXCWhKGD5PrNqItTw3Pc
FGGoyYINGv24Df7//qdO1dbQmdVbrBVfo4UgmurRuqhDhgjFaA==
=qCK5
-----END PGP PUBLIC KEY BLOCK-----
