-----BEGIN PGP PUBLIC KEY BLOCK-----

mQINBGrE2XABEADp0q9AsjMuSPFufPmJUsbGa6vVS0uWEz5IjZmZyhJBjVJdgyz1
FhLjOV2v39s8CywaSjWJ1AgtRJpu8audqmHTM1odo+quO431ijZxy4M7DuQmXIYl
j6yIEexOlC/zfaAO832GN/Gv4Zc7K7jBpH2FTtb8nidCmtLBlqgFlCtytEvQF5kI
Y0FZUkQPObsQ9+gCLwjhPQqLMIvmgPln8NWrp/vjsNtUC/T4zCL62YVhEguGVmtQ
G65bNws78CAbrd0kRu96CveymPesjngMNrn8uBzfwV6rn8Ctdz6Tm9Q1WhEgsiG7
8MGKUZRkSwk9tCNQNBGPhPzZJ7JbFkcKWD7s+BP1l/82zL1Byda0TrXuIj0fflQE
KADoscXKXD7PZA+Eu1gLa1e47L6s8VoyhR+v2WdEmX+4bASf/bsGOWWHsFH9H5Tc
ri2HDDlUuSGIRlJNeg98DAejYwseMLyTep63RpZYIkmy9Q+QznuLBfEX1Rlmc8yK
dxpM/14B78e4cyCCdFhuVv0s/wGXH7g+BQOrqOtWQpNYev0nuhaL2Z2t7pOLX2yv
C5B1g/Qz16B+nF4sjGsgKTrLqnaIQ7jIkiM/Ki7VD9BL39D3qT62hXKjUxpLWtT0
NcdX5BZxvnBfUd/PYTj0I0m1JEx/K82UzQHnu/4sK4GHsFlX+aBpo0f68wARAQAB
tC1TYW1iYSBUViBUZXJyYWZvcm0gUHJvdmlkZXJzIDxpbmZyYUBzYW1iYS50dj6J
AnMEEwEIAF0WIQTrKwBur8L4wXbpdBv6gtD1eKv7jwUCasTZcBsUgAAAAAAEAA5t
YW51MiwyLjUrMS4xMiwwLDMCGwMFCQPCZwAFCwkIBwICIgIGFQoJCAsCBBYCAwEC
HgcCF4AACgkQ+oLQ9Xir+48LRA/9FDPTkQx4pk3cchXIXyrGoX5Y/0kiU6h7ITKS
ksMonkZEHAXA3t0Ip+bGUKp2+bNf74guvADOPlMhEOKB6EAqo85Pz7DjUANBqOGC
umvu0jlv5kThjfhSzbyd+3IMSxyUUhUAiyYucKrYaEDjNGXEOIHj6ghRj5jwemFv
qVlnqOjCHudPM1ihGLCGnIhwvlOIIZwrF+fr7E6yYrHNvZkcD8i0KT6EXeId6sSI
mVu6RwQCDYWivbPIfGozBLM9d2qsplb6PncBS92L4lZeOSdovaNMPvnfyREylGni
vbpchAEzjvcBHe/VE5cVsalEhyVQxyy77kIwziv3BkU5GwrM6Yigpax7kmrxHDox
AN2fkM5T5xDpeOqjE13XY820xinpdojEc9YXBXDW7clS9xBkIxAavjIRHiALcVkL
PgGieYRieTcMKzILKZUEqjpO4A7fFt7uFzTE/VMpN+7AYtd9XbhYhCS8ZvNYJCkG
bSdMV72gwKuHlPNYi5y268SxnJ5QzuINMWPy7d5Pf+Fg6dH1BK24RTYivbhtmspS
6/gakdi3qbH+lRRJpEdjAfYEP9ncq7HAd3FDR2xRL4lTsGwITUqzGa+jn+d8e60c
/L5PFJYuKlDD5JL0TvwJliJYVO7atUe7+fRBJQHNcuVpait/f9yYepmkA2bEac8P
CFfp56I=
=ATaZ
-----END PGP PUBLIC KEY BLOCK-----
