-----BEGIN PGP PUBLIC KEY BLOCK-----

mQINBGqiX0oBEADB8pue/KzZwAbUfFyLLaUrHkdLNtPmLlS25FFmLmdMHwNx+hVQ
dxQRVvKfFy9kS1thi1zWoZbRUBufj2Z8yHSRafNEW6GAnfnYfA45/Zxbm8fQq4w5
B7B76j88cnc3SVBKhtsVhbkiTihSvxJheuoUFiDEYiMnWahqgN+g+3ORTLokgr1h
t16OUUxMxY59BWsOLnUofIYEW5u2Taf5iemFyr0qYRKPTqwq9uwoNLDTrL7UczHq
FdoNO7B12Xl7KrOVl/A0TGgnkal8moovAlynGqPs9TaWH3nbaa5RrB4mMhOW946A
GoZ7S/XQWHwfOFX/TNudVCVpWFMRQhpW40EG8Q0ivz4lbho6Bl0jlF68w9hEIxfF
c6mBlMDspc+//c+BN9ViN2z+CIwAH/0X62xVX+FB+ixr+4aP/dP13XpklBhmQRPa
xAAKA9kSZqvtfvaP7Xx9xMtiZ6uTphASako7TNugA0ONgqYX6BIKPKiQklkzNBGt
EcrSzdQPRXFQywgDVOaPbDFzoSfi0CdAGhiSFFOz+hHYNaltbsxpldLUct5lHzmQ
W0YuJI2mhF1LPR8tWllCZCIdYmL5/5BL7xqScB4haic8hPK1idHmisVOtVUWWcit
Gax9Ttz7CHrlxCdQ4v6I5if5+E//uVWb3bnjFbJVR549NuUpftQzpeqcvwARAQAB
tBFKYW1mIFNvZnR3YXJlIExMQ4kCbQQTAQgAVxYhBHrqBztM9M5KECn+vCneRhTK
UhPxBQJqol9KGxSAAAAAAAQADm1hbnUyLDIuNSsxLjEyLDAsMwIbAwULCQgHAgIi
AgYVCgkICwIEFgIDAQIeBwIXgAAKCRAp3kYUylIT8XeZEACPKpUGosVlZD87dnBy
0FQ+gJ6vp95FmwyyUFnBoQI7tcysLJKsvg8GmZk/YFwHtRX6IH0hwuzRlqKiFkd9
zABooXdYt7mv0X4yvF8vxNfnktKkL3HhQ+TX0r8mUs0sAOJuQXLhYXYWp2iQTNRa
MHlLbeD8nSjsOIsOFz0y5SZwbOrs+Uvq6okZKXwzknnNO45uaq1/hF6hYWNEs1Vz
RjPE77QblrE+L7GlmbJwDLdgJdpD8c3biqjmluA7BNMy78DSJYh8kUST/v2oABg0
GxvS7Q7hljDmyIHfCNoBLhaX7AwxXR1/mNA7sTVdQZCI8P51aThONjacQX5hq/yr
6CPlTqyj98Gw1siHXXtyYkeK7nhuzyyEUb9hM9q20DPJOeDG/qyMWA0+l6XFfaZq
LK7UVG1evNqLHRRI6e3ptLd3PURDtgGwYJ16NaHU8V9x1Z/2oz/q/9SAOpIPCoGr
ztzD4BW0hF1/oJyGlaakHwp41fMa79BZCKrLwqfM0HJQ/y3uje4LEXQIpiMRODf+
D4CGX86BH0o8wXehBqQwEym+N9QNWOBCewRqW66IxkT4O3qcU2Pq62TyCvfohHjj
JXB9LLNsiq6/S79cPrUqxTebdCOUoWAX/sYkEuPZYiVINYqOiweFKWFs1jH2anyX
+N25T17A7WhEeMXSskUddPGmurkCDQRqol9KARAA19bcnUxE7B5u25iOLOp2zbtl
6gvzhM6l1LUIQYdqfraR7BHY+etTaMeAGYsU5XyLHPipKjMuoEqZC1VMhqdMd9z7
4VErr9Bu3eNaaeeBq97URufQjL/kXDZTCxRfgYLlmJ65jE/VJO/lvBzV2U0tt/Ns
6ZiN+mA57mVo3JSkNEoBWoLXcRkw8VXP0I1Bapd/G4SdU1yzPD+HrHl+dI/RWQfQ
6oN7rwIkK5OLMqPlk2ADXvcbkL/e/bcNx9I59JAuD34oUMr9rrM5ttEp2NC7wkoz
tIkNcVvnna5Z9y7akYkLC0XktbQAGP3UNNDk+tVIyGzzgkJjOei+/emBpeTL3iwC
IFjQWnaYyOPKbJQC4+1vQOS7+edfnOI5OmSUV+d+Lso0XPME8B5A1kmG9uZxN3rb
k9VTAP5sNCRuD2AScNqAbSmZ9aH3+zB5PgHSjnQBDlGWXIgVlykXh/LNN46TVAL4
3GWoKXucwqq7r1GNTn8QUm76PzZeovYO0EGChH+1z0FMN8kmdChnwocF/sY+wAPO
cQTwE5U7E99CAtYHFtKdG10U/Yr8GI32Igj82bJElLe30PrFrB8RowRZxpNYbn9Y
bGDIaG9F4u6fXIbN7aTF2wMb1jVfHrQvwYRTgsomnjfeWvd6MmvXx78MVz3TLAUr
9Kp2UnIEwPsFZuOz7kkAEQEAAYkCUgQYAQgAPBYhBHrqBztM9M5KECn+vCneRhTK
UhPxBQJqol9KGxSAAAAAAAQADm1hbnUyLDIuNSsxLjEyLDAsMwIbDAAKCRAp3kYU
ylIT8WTzEACwKm8ggbasOqgmzgDzv6v1HOSEzAoK1n/OMM30/zh/7foZdEx2nQsJ
2NFqzGYjtbLLR0z5DJWOovmob3qr/EgD4JV6KxYrLfNX51LL2FV5B6WEcZBsCuRl
bG4hF2VulhxOZxEeyVLgUp95gDJ9LS/+ta8/OvgA9sNcV9MtiO+yQ5dOwi8nWFqa
ROXk47cIgcdEQyPfrlxjKcOb3PR6dHd7VoH+/Klf1G5L9rR+DA4KOBqoVHz/LOfn
E1/ezsIz8/LV7I/5C1OMFc5foTwsUVRB5poKLghDOlMibRkYs7JYWDqpd8uWL2hy
iM9rKnWqALZNbPyQwORAJ/uh8dX+2jUQk/hsdaN1rVMrH2u0eSzvc1tlzL3TYPyp
HKoaiEDisdUBPvSDm8DoL0FO9Lnf6lTqa1zqlB0k2oi+oEaSc0UQXbiA8E3rBBQk
Hqp2Cm6NsCDVzYluTO0r+Le/705gX80OaT/WWFn5FbAsqu0tozOWyyqexB8GkCZV
qbBSdZcC2SYtSUHmrI9ynS0zaYmtZGBOM8PfkDdaY3XnGE0v4gWhv4a4yD2D2cAP
Sq6O1suOVHBXWe45myW+oJFPKHMAop6Gt5j0dXp9heuGfkQIgmKWFt8WDQk+Jlys
XOeNnDYVAsuGsES7iMna822DTWqyi8EEWT+glEG2xjEzNSw5n3BJeQ==
=2dIu
-----END PGP PUBLIC KEY BLOCK-----
