-----BEGIN PGP PUBLIC KEY BLOCK-----

mQINBGSHNPkBEADxAfFixexRpjeqRe54uCt08m+rea4c5GtvrVOY/AczJybwUSEq
vJRNSUOvOB3+6oa1Vkks873AQssJORQP7gwV6Aa/1kC9xGjiI7xpSfQzSGCobqrr
zxYUvYqCKYe1f8KPrkeaMnFqwqDRs/s8Drlg/FlYBqSC1eUVbm6YSRvp8GpwXspi
EP7FEnyViB4K7yfhQnfIrcv+51jugYDufS+9H7lZITq7VR9YtDz/Uo9cn4fhe6zU
RYPKpUELW4TqG9gJXSqFHgnxF/7mRmPGXaFFHmXyvHPD+FKb0CNfyK10j8oCWVVd
oukZm9Jf1GaFY4i78zubxjw1WaivtD8VbaPQOvMo9fNZOwHduJX3yGsdOua/nUiv
KcOE5jABuaEva1IcthEmpI0nTPBqyOBQ92TWyknhaq+DMggc+aDkhf578dlsGdgG
u3QKr9t13VWHphay3U4YRX0p5sb5Os3rG124rHQM+UG5BzE+zwrz7U/TSik7psyw
vXXuM5O8qBUKd/22/0StGqaYUhTBykxBNf1d/cFzgJmav/AvQr+SrOy8Y+pAAjMp
BTbvM7l0mVVmnEjp8zHWFBkk0kVkHIJlLqi/nZ/o23r7rMy0py3CBsq5vUX0VCcs
myIDJnlA0Qx6c2C9kWoeztBsLFebZJqxl0HHSEB+mCKi6z1sxCmzF6DnHwARAQAB
tCZNYXR0aGV3IFRvcG9sIDx6b3R0aGV3aXphcmRAZ21haWwuY29tPokCTgQTAQoA
OBYhBHTuIR4yvx352YT6OUuGoeXlnIuBBQJkhzT5AhsDBQsJCAcCBhUKCQgLAgQW
AgMBAh4BAheAAAoJEEuGoeXlnIuBjSMQAKlc90rHzbDXvv+VAZIsey8aiiVtFIaJ
o9dRgD7IKQBUWcvSbgOcRIZWI96nXb9GKKb9V4Fu7vQCeYlhoV7SmlBQHaTnujUH
5vcCx7nGtmgVXt6FYFXoG9HTce98n6ptqDeO3u7mKyHp2DHQJ/NJxxtjXhcvVyFw
Eo5sa7TkVshz17PL6Qc/utkVfwcZmqzzG78YDHEGu4RZCXOsGp31qRHuA3ijU8O6
hsUg1ei48kZNVhZ5/UV2kUnKqi87jqpV/TrGRX4SU2jqcZY0w5nU4V+h5UVOwO9g
XsNKUWvRQgrpvJCyk1QkzlVZmG0WZdyPoLYvAhy5yAODUm+Whj9AcuwjFJ1tWeyT
gmu/cWl7Q6DHKE09g0zWNtZbQphMCBI5TSmq33GHs2Tc82VuOg8TSGk0e10xbyZL
qz35vDOncpHtID/gU/HP3JWOw4ttZE8bzzoKfz+CQpPbYoSJMYQuk2DLkj1ycaM/
U1vWl1J9/BdKQpOUHDB1hYbVN6xDw99ddCQRPCo204mF0eQwogL8McnHsEyy0gYn
MC7P1NJ+3ZjSYOPKbvWthvY3WSKH/vrt8ekginlYY3XZ2iqbOKG8SZtFc+vytMr7
Zbm/hheNA8Tja7FgDe0xZNI9Mr7+yUVgMRPjnMwpeIlrCvTbVLPV9xbk/XWuxbaX
tDbIEMEpEIIkiHUEEBYKAB0WIQR/8mJx4avikxCeLoTcAFHu8z80GgUCZwl5EAAK
CRDcAFHu8z80GmfPAP0UR5aIHN92vR2yqPsmA9A1ewtzac5O8CyKDrqr3Q02QwD/
VGgh18DAS+GLv7UzKAdYSb8EpUketVG2MKb5Sfwq5QSJBDMEEAEIAB0WIQT/FMM6
Wi7yfJwXiCSKr4jW2E5BrgUCZwmc4AAKCRCKr4jW2E5BrnOLIACkKMIs01VVcCDp
F0UfoWZ77cZPlWwrvMAjFMikGiHQHnk9X63+P+CyYKCP72+a1Xcp+F0LmfChmp0/
LZNXOP3KmcQAouUq+xswJOHkRUA25FUS/HUntpxOnnvJf/4boppVnkLCJtH7w09g
e6lG9fuZzvotOYYZnhzL3Vtsvz2Qk9Oz2ubiLDuG4TDpXMq8kgialNG8e5xhUN2c
uCtGDgIBi7M0ilNYcy3w3IqTfTdHru5Zm6Q8IrNIus5/5rroVc3CmBdmI3Tcnr5y
5lgcjtTuVT/ENS/ABH/ofJ2pZARvv9vMtlMS4biHQx7/MHvTz/GHeSgjbFX3pEM8
oxvPVoK1Or5UxDl2ICtEsiNPyQ6nym4gZh5dXDXHEyW5bjf3kL54wJDEWWWnVivQ
YVOB2KkIvY9jYLMrJf5cuoqGHPrLs7JROyuavOQQ+pH0wmQsnSWNTZDx79kSDVMu
x5VMp8iyeyh2ot3bqh3QbW431Z0PvUJipDfnVjzzwjJ/RdCp0H0MBTIZENZgfaJS
onI0J49eIVCLXIV3v4fs5BExgyzFX6YjE1fmFbgtShjrSMZgCF9xgG1q+lNedNDy
ZDYW7krwoPOIQFnEuqmyI5Jn/RXO7r7WSU7ZdOUQDC5BEirGvcm7gQPff0h6gCRL
QRgtA1FO6LnoPnt//SCU6dNDelBYo6ydc6LlBV4ga993Rl3HJqgytRpkAhkChqZa
658cwYmX4Vy0jP30E9JicE5MMxmSlcxGlyrnm6usXJ5KYdR5WyT/7JX9f/tuia5s
AG7f5URxQAi88KT2QQEDndTwmTsIH4FSZKK8KJvwhXost+NeSbbTYvxyS7aJq3Ng
XYuzF2qngqa+HWsMjsd+jneVSxgfEzel+WRgZKghtNyarcUuMNtVNSR8UUC5uAz1
TrOPXfroTTOCUgrmbfQprynEV7jpySzGp8G8902/IktKcpMeoMvjVtERdLbJXdhh
IHhKyAhtpzCIjB4r5x1Y2wVfjWU3UFRUZLTqQdYt8mtPIOeziRhjuWkK0fPOa9v9
TUgC2CHi5GQkXJ3nYJNnZb7pUV7pX018bMzbbU4oausWvqOLQxmKSReOz1OXUFei
I6HwpREgswE4TPvtEc6mleQ3C+D4LlapkX+jgkmeOOzBShtAOItv28tV/BRd+wb1
5FElUeVtn3xLbJivlFnBCxOe5cqvUqAjHdau9YPP90DtVCCOAy9EmVxcTkCakhXx
QlGo+222OMRW3/jxZoPjTmBT407/PWo+ru1PpyqN1Ihybzk1fQaM0tKIxpMfwl67
ZrQ85g5krCysepCQR4Oe6jWxdyX1uWc+VX8zJc4OA4bjfGhNmhO112HNopFj+0N0
uu04Npx5iQIzBBABCgAdFiEEqcXfTSLpmZjZh1pREMAcWi9gWecFAmcKVk0ACgkQ
EMAcWi9gWecjmg/9H+gDcR7orwRiN7sC7tMnhYHMS+JRgI9DWMsC4h/fpGJioRsT
0LBcR+0tDHPe8d4dSyKWbqLYAQXkpQz1yxRoN1UOufRVdVDR91X+m6WHsl+/8Mdu
5AhUAmyKDNXlWFTPWMTW0UkxgAODWsc0BJck+vRFeSJhHLSoFATKH7hOq4/Zg5fp
A6AkKpDUVMEUasDZ3IcuSxfgz6tbv9em4v4ucnt6xAzmivvqA/A/C1nUWNLEUmfJ
WsgC2jh2F1Xan4x+ZyQRd2q86Sp5iOH9ih3/4icC9Oc7c21amTZSH0QHgX+qGTco
RfUONB1HIHk+0nPd30fiNynTX+ufSUdfLKEmeccmH4eTox9sjg6Hc0rgF9aXjLVP
QaNe25CHfy7K4EnTyHHxjmJYHY1cRIZM+ERu0021kpjCdhyIL6WfKSoJZwdAvCFo
OEXN72IitDyDwMbZHBAk1GIFUx8H+ZVZpVHS767AvtZdGPTdWhcOZXoWzqftTh5g
rFdZGmPzLJRY/AKZYue/6yRPE7BIsh+xuyP9ZlY3tW8AJXiGD2JIzZxRzj4dF6cd
VreP/7Csr7Z9694Y6vPmFv675LyG8DmTz/0E+0b9/zz7hbvjva6jOzEyGPVd5OTP
PDpf0gPf+/Q5dO75RzhGzYvKJxSz+gcCNMRhZysW+OUiT6sw7YF55qZ/trS0IU1h
dHQgVG9wb2wgPHplcm9zaGFkZUBhcGFjaGUub3JnPokCTgQTAQoAOBYhBHTuIR4y
vx352YT6OUuGoeXlnIuBBQJnBxs5AhsDBQsJCAcCBhUKCQgLAgQWAgMBAh4BAheA
AAoJEEuGoeXlnIuBD6UP/1jwlj1JEgX+p1W2LU9+smplDhimxn3TaAjqRFkdpjCD
z7JRbbdHpWCunr9MprJ0C2uh6xorDVJdI98O/DJxE5CVtvFFIVGG4vtqgm1zQ/dY
N7VFidR6vlSTsV5Kyu0sj5KNcmHZCvxGvhs5i/fykj7v4Z4p5Tw7V/QkMq4m8nkr
5s0XcmBfDHr1bzdxbtv4dgpBdtg+Xkos8+ZcjH3tC54iqpXzLWorQIMSdXcs9pV5
5Wrq8PODaVGh1w+uRFn0den1Q1MtKxQTKi/G9+5f3qmyeaJ69IImCOBt91Fi4Qd3
ibQFFPq0DOpJlO6aASdPYLbHxBlHM5dRsYYomB4ePwMqQcopaKkvUtFX55omSRX8
6uq5GE309GzURy/NWjSj0LLj21QEtSDrxzqCvA8DavkJOOxW6caavH9QqssPEcfd
Oo87aWPSuzb8F521NMWfyhhYHJZIu0BBlvCB9YW/8/RCvqwaCl6DCAposelTp3kS
cBnBKpcypqtmqvvkBIYQgvTyLPw7MymSUkcVdS2nDShRNZOBPP44bB6O0Q/crPd1
7M5FmU/RRI+3AHhwtuPjvmRIN1Bt3Js6Pp/W4cLuz3Sl2+lJSjliYujy/maDvK+S
KjCFatBVB0N7zL/2pFSpaFDIvQDeigVxjPnGAbG4rF76UC7d0ffQmq01aVPPT2qv
iQIzBBABCgAdFiEEqcXfTSLpmZjZh1pREMAcWi9gWecFAmcKVk0ACgkQEMAcWi9g
WefIDhAAu5VC0vrTj+IQuMebmMU2hZHqk2hGm76K+JY8Hsx/spWmdD3UQ2+JrLxn
hkaQw/HN7hm8vuq8fjwncrlkMxc+9LbP9N46LoREDewPxA+4EIjfcjOnAISiCTAA
XQ2V38mVWsrIlN4F2PHVNMsjUndiLQqQUx2iRuBp/LjGGrlQV7IeDG87SmTMogMf
E+zY+pdlmAl7M2hsO1wyTLx1kuN5d2ZYlhZKNEzslz+JvAYzIruBLWEB1HmOuUGY
b9b15Rp61TkS2Bm48LpsP7TSOucmVAUgDGWToThjxJBU4FtZMix8/UDFKygo+hUp
lBQlxA0zt8K+tYU3AtAwrr5CTXtugWE/7ZtqTzJwBMwzun25rGaAFO0jQ1zkDdw3
E7KHSfutU84czQREbXOvJQvN5vBwZOel/c3OtN+pd607kiDPj3XbZBB+4BW/pc8t
MDCUgWBm9KiJ8xyOf/VvDcCGSzM06tww5dd4X5bSo1gk5bMjOzvCPaFBJqO1OLpt
pjWdAZVsFCOfaZ5KjfKFOJ3AzBFcYSTWqREpf4DgxdP4X8VltNA2zuh/IUo6q5lI
phzGzDYJr0F3kh9t1syo7zTOQljCKwCTsMeUOsYipwHnkmGjoZeAyaWpqSb9KcjE
LLsnajKNJB7WII4/Wstu+xZF+X5xd5KZL0CiWpKv4NoWti6d7Lm5Ag0EZIc0+QEQ
AKJaDWMT7HvlDv8ADjPqqy4WNYiTAo1UuToax7/cRc+FtcvrK+i9qq5VRkGm4aRh
DwKxuoHCkQNU9bXOirKIKSPhPDqh7dWxn5nKZuFU+hWvduKd0l/20k3jRMvR4PJF
oF3Q5MAyrKNhCXDuLTJ8AeqH1jgiEd2aUVEccGBXF4fGdXqthx2kYW/m3K+gH88P
oFCHE09wXmGCRbWrWfh4IBXbb+vaF8LaDFNzU/IMsbdQAWr8hbJ/uohk7c0+CrHt
XPJzOEnSoqrr8kU06rEtu729xa8WMpTwNFBLYxS7k9xqGkGHmXmqFhfBpf/lkED1
0Gx89Jc/gmhtnM1htIHnD8I8eq3tJDfbgO57hGbLhRMIjYOs7GIXHttuOnO7g7ZJ
Ce2CpdvATRVB6Q+xrxQzR+37tv+LiMEAAqu/g1bZT8i4U/E62e4P7c8r1mu4fe2A
19IWUOf1k6PqpRkL5alRUWdHm2WCn8Rrsd/LlgOfupG8rpkZe8W/HjkmrohxfepA
ISUPnZPV4igG05bhCqbYyTp4oVYGa9hueAFsrGkOF4M2r71DMzDR4Xet5ibH5me/
jQxYCVAa/w6RoP2CAnZBQDutd0Uc9qrXVBnc2PlivhYamcrp1iNWBZsm3zbuGIXU
3lDG1DKlXlnHcqSPR9jrkwsVn4eEBpzv+nZ+PzLlXYh3ABEBAAGJAjYEGAEKACAW
IQR07iEeMr8d+dmE+jlLhqHl5ZyLgQUCZIc0+QIbDAAKCRBLhqHl5ZyLgZFaEADO
UbtP//cYPoohvLppJnZGriVzXVqS2d13Vqcn5z4EcRl9bzx7hVlPvIKcyzTgZunq
H/SrOczXHADuwjJ3CtZI4A2X6mDwomv84TQbnDhXWCsbXoroCcCzDJmm1GMyluhr
dfKiecBjNbYQaja/8UxuxdVqTnofUfitqxG4Jw4m6TSUUi7ZtAaGYst/gf1kL1z6
DyUBRtK6jeYqUQIeE8Cjk4DZ1S9ddi2yTj6b9hG77pezWQpGz0fHK87FwoDl7xQ1
A/cQHCw64i9+9BqY8XIYjEmfXYTKRm1uI7/f4qzfBN5a8X+5RBAyxJh9Jwt6KG2I
VjnN/8KEPGjJsSb1oI3NCbQhpP7tgc3elYVBaXItHtdPC/dLgCok9f6dPEZmf4hL
0k/J7yqf1O0sp/taEm8Kea0Jeqfpl8Wn3UJYDb7gWTMpTCUFhYeV4o/ef1wTYC3/
Fcz19CS1wXVphS+VRjPCAziY23v8dHb5AsilLZdF/EWEz6hWrrAjMK5oxkb1UmhA
3LC6S4dD8dxJx5YQD6PVv1A0oyS43L0hnUwlizIQGITr7Cy9ZJkBNj+udTL77kPi
LV3tBdzuWxIat8ltpXti89dzrzW4WpcWnydQeB8rrckf0ji6PFFel5T5MtPtZqLa
VfHMXCAG0TaNBu/GggBB2KA0trox0RvwCDyt0NQd3g==
=Va1I
-----END PGP PUBLIC KEY BLOCK-----
