-----BEGIN PGP PUBLIC KEY BLOCK-----

mQINBGp4sGQBEACmxCRb5prDuBUXQ06QkssNAvxLFvlmdzwLrULJRxUg/RwG+e/y
g2d2HzNopXYpf+DhdDBCAUepkbe/7Pd4pyLCr0kgB20ucS8xbrgcW2XRC0zH3Kab
gj7RVg/TEXzco7DsFgmbcaVELutz7S3XM4+0iVCQfH6LF80v2gJyhuI77auxaPTs
0tzsQkqd6vOoUpGYhivQ4ARWwEcl6O5b3bfKo8PMN77cKZhs0FeK7HXInBXCAeu+
kRLi87Xalyrx1QuEzvfMol2Lv1P5yNbG7LMp5dfV/8IJhL6fW/OmbqPM3lKNxLVK
G2PJp7iK8NkIXzbp0CFP12HVTnklQeJ0CnsYTEhzfFJphumjHtOwOhHl/+tmu1iA
k6WsLnN6Eq48r5hI7HskbF/IEMtk8j9FqOZjmnyWg+gEWA2ZoDdM+yLh/c0KbCM/
4mDSvufIC/N9H/+qm73yWomN8vuayqDyo/lfsjkzqolZWfEauEYGN9T5iW2HE7LY
mRJYqMDTT+yj3++kZ9kC4EYp/aSiGpat1gWwUhLChTUAvvdguOO1HTZd6DpxRwOY
YgfLO4xHart6YBeMsmEQxjbh2tlls8S8n8UyJh5GrimR1Ncwr27TWe2GHhi8JGVU
jm2PAeVo20FaKlHuxuL40KRvw9ZLBvkKG6LHtYA2/dg4H3y73vcTTG6uQQARAQAB
tEpPbm5pIEhha2FsYSAodGVycmFmb3JtLXByb3ZpZGVyLTQ2ZWxrcyByZWxlYXNl
IHNpZ25pbmcpIDxvbm5pQGZsYWt5LmJ1aWxkPokCTwQTAQoAORYhBKFBbjff/Y+1
gyENjYGM4CCZdOlYBQJqeLBkAxsvBAULCQgHAgYVCgkICwIEFgIDAQIeAQIXgAAK
CRCBjOAgmXTpWOl8D/9vhqde7KJqA6AuAAORKMVe4QwCrooElJDK9yEFfVPOdlY0
5oai0DoqkPw02ni5k10zeyPzgkKnXdG/Uvu0fsZMUc5MtXU2uxjy4RYMDvKNyABq
HkytkzGqgD3rd96QbPTP9jtfDJ0RRdsdQzWWTT20rtALYwKT3kA1Lv//fyllikW9
3da25lIrZSSLfQrjm2CsA63s21ueNhY6xSA4eaMI8vrsDI1NnpC5oKg4CmwH52XZ
bAqvUZh6eRGH14jhbYiuN1cDnWfhBCy/3oVzC8SlncTd3S57+sswR1cjlbWD3CAT
SWibTVIXduhf37FsXNmAPCynzhyTQL24B9d9s+wx7v+Q8pg/Mrz3ScYBKShsMIh/
x/XudVRFb/p7H6PcI4EOB6i2DXO6f3KAEAT4dkjsu+du33UlWYdO+QXPOZTkWni2
qAzTbpB9TxAg3cbr9UM2863wejBXhwhmHvBfa8xxvh2VWYx0yVj8ba+gPqVeBYr9
nj2hxjePhVizuxmGrja7ryzGUezvmg/6EMp1bZ3I+s3XHyLEbPhjvZCRhR2uflGy
MV1uc1K5IOHprHONz2CEsV/KHTz8Rw2P8Ms1fr/dR9hCI4hHMm5n18XyK63XKWMs
Q9QE8T7Ct3nkwOVqzgnk3XO7hDxPm7zquBeLYiGRq/TPINDMQfeTDC+D/C9pqw==
=YJ+m
-----END PGP PUBLIC KEY BLOCK-----
